X:824
T:Asturies, Patria Querida (MQ 057)
R:Xiraldilla
C:Tradicional
S:Msica Tradicional Asturiana, (C) Tello & Tito. Asturies, 2001.
S:http://pagina.de/MusTradAst <telloytito@asturies.org>
N:Es una de las canciones ms conocidas de todo el Estado Espaol, desde hace unos aos es oficialmente el himno de Asturias, aunque muchas personas siguen considerndola la cancin de los borrachos.
A:Asturies
Z:Manolo Quirs 057
M:2/2
L:1/4
Q:1/2=50
K:C
C
|E2 E2|F E/F/ G (3A/B/A/|G3 G|A2 F2|A G/F/ G G/F/|E3 C|
E2 E2|F E/F/ G (3A/B/A/|G3 G|A2 F2|A G/F/ G G/F/|E2 C C/C/|
A A/G/ A A|B B/A/ G E/F/|G2 A A/G/|F D/E/ F F|G G/G/ A G/F/|E2 C C/C/|
A A/G/ A A|B B/A/ G E/F/|G2 A A/G/|F D/E/ F F|G G/G/ A G/F/|E2-E2||
